X:36
T:The Peeler's Jacket #1
R:reel
O:Ireland
M:4/4
L:1/8
K:G
"G" G2 BG DGBG | "D" FGAB "(C)" c2 Bc | "G" dggf   d2   eg | "D" fdcA  "(C)" BGAF |
"G" G2 BG DGBG | "D" FGAB "(C)" c2 Bc | "G" dggf   d2   eg | "D" fdcA   "G" BG G2 :|
"G" gagf d2 ef | "G" gfga    "D" bgaf | "G" gagf   d2   eg | "D" fdcA   "G" BG G2 |
"G" gagf d2 ef | "G" gfga    "D" bgaf | "G" gbag  "C" fdeg | "D" fdcA       BG G2 :|
